X:0009
M:6/8
L:1/8
Q:3/8=120
K:D
d2A AGF|GAB A3 |Bcd efg|fed cBA|
d2A AGF|GAB A3 |Bcd efg|Adc d3:|
e2A A2f|efg f3 |fgf e2d|cdB A3 |

